assets/img/achieves/misc/license-pken.svg

<?xml version="1.0" standalone="no"?>
<!-- Generator: Adobe Fireworks 10, Export SVG Extension by Aaron Beall (http://fireworks.abeall.com) . Version: 0.6.1  -->
<!DOCTYPE svg PUBLIC "-//W3C//DTD SVG 1.1//EN" "http://www.w3.org/Graphics/SVG/1.1/DTD/svg11.dtd">
<svg id="Pken_logo-%u30DA%u30FC%u30B8%201" viewBox="0 0 1024 945" style="background-color:#ffffff00" version="1.1"
	xmlns="http://www.w3.org/2000/svg" xmlns:xlink="http://www.w3.org/1999/xlink" xml:space="preserve"
	x="0px" y="0px" width="1024px" height="945px"
>
	<g id="%u80CC%u666F">
		<g>
			<path d="M 0 172.959 C 0 70.8159 70.8458 0 173.032 0 L 850.968 0 C 953.1542 0 1024 70.8159 1024 172.959 L 1024 772.041 C 1024 874.1841 953.1542 945 850.968 945 L 173.032 945 C 70.8458 945 0 874.1841 0 772.041 L 0 172.959 Z" fill="#f0f0e1"/>
		</g>
		<path d="M 950.8571 354.6478 C 944.307 372.1074 935.5735 389.2702 926.8401 406.7298 C 922.4733 404.5474 915.9232 402.3649 909.3731 398 L 903 398 L 903 440 L 822 440 L 822 457 L 933 457 L 933 612 L 832.565 612 L 950.8571 712.3926 C 942.1237 725.4873 929.0234 740.9411 915.9232 754.0358 L 793.6546 655.8256 L 669.2026 754.0358 C 658.2857 740.9411 645.1855 725.4873 634.2687 712.3926 L 754.3539 612 L 654 612 L 654 457 L 765 457 L 765 440 L 682 440 L 682 398.5335 C 673.2665 400.7159 666.2643 404.8441 659.7142 407.0266 C 653.1642 393.9319 644.7335 376.4723 636 361.1952 L 636 354.6478 L 793.2026 280.4446 L 950.8571 354.6478 ZM 418 293 L 418 634 L 191 634 L 191 747 L 77 747 L 77 293 L 418 293 ZM 865.7057 381 L 719.42 381 L 791.4712 346.0808 L 865.7057 381 ZM 586 353 L 586 383 L 632 383 L 632 440 L 586.1493 440 L 649.5522 553.4872 C 634.2687 562.217 616.5671 570.7101 599.1002 581.6224 C 594.7335 575.0751 592.5501 568.5277 586 561.9803 L 586 748 L 527 748 L 527 584.3164 C 520.4499 597.4111 513.8998 612.1767 507.3497 627.4538 C 489.8828 620.9065 472.6994 612.4135 455.2324 605.8661 L 529.467 440 L 473 440 L 473 383 L 530 383 L 530 353 L 586 353 ZM 304 409 L 304 518 L 193 518 L 193 409 L 304 409 ZM 763 516 L 763 553 L 713 553 L 713 516 L 763 516 ZM 874 516 L 874 553 L 824 553 L 824 516 L 874 516 Z" fill="#221e1f"/>
		<path d="M 587 294 L 587 353 L 530 353 L 530 294 L 587 294 Z" fill="#ee1c23"/>
		<g>
			<path d="M 95.8676 246 L 136 246 L 136 240 L 120 240 L 120 235 L 133 235 L 133 229 L 120 229 L 120 224 L 133 224 L 133 218 L 120 218 L 120 213 L 135 213 L 135 207 L 120.7868 207 C 121.5728 205.6906 122.9672 203.0718 124.0152 200.2565 L 117.4652 198.5543 C 116.8447 200.1256 115.4657 203.7919 113.2337 207 L 104.7293 207 C 106.4181 203.9229 107.1419 202.0242 107.8054 200.322 L 101.9634 198.8215 C 96.5267 211.0645 90.2739 215.698 87.8485 217.3798 L 92.347 222.8152 C 93.5437 221.7638 94.3625 220.9227 96 219.1003 L 96 246 L 95.8676 246 ZM 114 223.5482 L 114 229 L 103 229 L 103 224 L 114.3817 224 L 114 223.5482 ZM 114 212.4604 L 114 218 L 103 218 L 103 213 L 114 213 L 114 212.4604 ZM 114 234.6032 L 114 240 L 103 240 L 103 235 L 114.3817 235 L 114 234.6032 ZM 77.2697 204.1901 C 81.3306 207.9219 84.8303 213.2905 86.1789 215.4081 L 91.6595 211.1955 C 87.8485 206.0887 85.9862 203.5354 82.1165 200.0654 L 77.2697 204.1901 L 77.2697 204.1901 ZM 77.032 229 L 83 229 L 83 246.9194 C 80.2491 249.6676 77.3671 251.4568 76.1227 252.179 L 79.1691 259.1328 C 82.7715 256.7527 86.3715 253.5095 88.4907 250.2378 C 91.8761 256.0973 99.7359 257 104.3208 257 L 137.332 257 L 138.7074 251 L 105.1956 251 C 95.2399 251 90 245.7718 90 240.1414 L 90 222 L 77 222 L 77 228.3903 L 77.032 229 Z" fill="#221e1f"/>
			<path d="M 150.7974 259 L 157 259 L 157 213.5977 C 160.4677 206.3305 161.7521 201.4202 162.5227 198.5394 L 155.9049 197.6883 C 153.5567 207.8363 149.539 215.4309 141.6137 224.0076 L 145.5636 231.6676 C 147.0701 230.0963 148.2491 228.9833 151 225.317 L 151 259 L 150.7974 259 ZM 170 198 L 170 252.2081 C 170 258 174.7103 258 176.4856 258 L 195.2546 258 C 198.2499 258 199.9342 257.3704 201.369 254.9781 C 202.679 252.9006 202.9909 244.1071 203.0533 241.2919 L 196.5032 239.4587 C 196.5032 240.7681 196.3061 248.5121 195.9117 249.6906 C 195.6489 250.4108 195.2546 251 193.4801 251 L 179.5631 251 C 177 251 177 250.3453 177 248.5776 L 177 227.7394 C 183.9664 225.186 195.4674 220.0793 202.3271 214.9726 L 197.8356 208.8183 C 189.2897 215.3654 179.8917 219.4246 177 220.6031 L 177 198 L 170.4499 198 L 170 198 Z" fill="#221e1f"/>
			<path d="M 239.0067 207 L 209 207 L 209 214 L 240 214 L 240 219.9688 C 238.2571 219.0336 236.5057 218.2448 233.5868 218.2448 C 224.1009 218.2448 219.9316 225.6058 219.9316 231.5281 C 219.9316 238.6989 224.992 244.4342 233.0331 244.4342 C 237.2493 244.4342 238.7412 243.125 240.1129 241.9406 C 238.6764 247.125 235.3034 250.6177 219.8006 250.9815 L 221.8962 257.5289 C 232.7736 256.9111 247.048 255.5521 247.048 236.5154 C 247.048 232.8373 246.4585 230.406 246 228.5981 L 246 214 L 265 214 L 265 207 L 246 207 L 246 200 L 239 200 L 239 206.7383 L 239.0067 207 ZM 240 231.9022 C 240 235.9543 236.7304 237.8868 233.1628 237.8868 C 228.8817 237.8868 226.4817 235.0815 226.4817 231.3411 C 226.4817 226.5409 230.4385 224.7921 233.3574 224.7921 C 235.2385 224.7921 237.3076 225.4811 238.7346 226.9149 C 239.5779 227.7877 240 228.7851 240 230.7177 L 240 231.9022 L 240 231.9022 Z" fill="#221e1f"/>
			<path d="M 278 200.5361 L 278 207 L 304.2134 207 C 300.6075 210.4151 275.434 233.3853 273.8621 234.8329 L 278.3815 241.3513 C 281.8529 237.5187 284.9968 234.1409 289.9092 230.0187 C 295.0193 226.6936 300.479 224.7921 306.9147 224.7921 C 311.3068 224.7921 317.9438 226.278 317.9438 235.0371 C 317.9438 236.6226 317.9438 245.1394 309.2104 247.9002 C 309.618 238.2081 303.0654 233.5219 296.8177 233.5219 C 291.4156 233.5219 285.1933 237.1051 285.1933 243.5984 C 285.1933 244.4973 285.1933 255.3464 302.149 255.3464 C 310.608 255.3464 314.3351 253.5732 317.3051 251.1179 C 321.8136 247.4508 324.4939 241.7365 324.4939 234.6924 C 324.4939 231.4438 323.7187 218.2448 308.4004 218.2448 C 304.1459 218.2448 302.7278 218.8467 300.8644 219.6483 C 302.149 218.5127 302.6932 217.9161 303.436 217.193 C 306.61 214.3663 311.2629 209.699 314 206.8831 L 314 201 L 277.8979 201 L 278 200.5361 ZM 302.406 248.7991 C 299.0017 248.7991 291.7434 248.7991 291.7434 243.9837 C 291.7434 241.8007 293.5419 240.0693 296.5608 240.0693 C 302.4702 240.0693 302.6602 246.4235 302.6602 246.8729 C 302.6602 247.4508 302.5987 247.9002 302.406 248.7991 L 302.406 248.7991 Z" fill="#221e1f"/>
			<path d="M 338 200.9724 L 338 253 L 344 253 L 344 201 L 337.9922 201 L 338 200.9724 Z" fill="#221e1f"/>
			<path d="M 398.1538 219 C 397.8264 203.829 388.9841 201.1834 376.2119 201.1834 C 358.3091 201.1834 355.1975 208.245 355.1975 227.1034 C 355.1975 247.6638 359.2057 252.7145 377.6529 252.7145 C 391.9315 252.7145 398.3503 248.6681 398.5468 234 L 390.687 234 C 390.6215 244.9181 387.0846 246.44 376.6704 246.44 C 362.9157 246.44 361.4748 241.7932 361.4748 227.8975 C 361.4748 210.8256 363.7017 207.7581 376.4739 207.7581 C 384.8577 207.7581 390.294 208.9422 390.3595 219 L 398.1538 219 L 398.1538 219 Z" fill="#221e1f"/>
			<path d="M 405 200.5421 L 405 207 L 423 207 L 423 253 L 429 253 L 429 207 L 447 207 L 447 201 L 405.0908 201 L 405 200.5421 Z" fill="#221e1f"/>
			<path d="M 469 232.6882 C 471.177 235.4495 472.502 237.3134 475.5113 239.9365 L 478.5847 233.3786 C 474.4229 230.0651 472.7986 228.8915 469.5331 224.8877 C 473.4389 219.6726 474.9115 216.6131 476 213.8799 L 476 207 L 469 207 L 469 197 L 462 197 L 462 207 L 452 207 L 452 214 L 468.6965 214 C 465.7695 221.0777 459.6227 228.3213 451.239 233.4987 L 454.0747 240.4198 C 456.1051 239.1082 458.0701 237.8656 462 233.9998 L 462 260 L 469 260 L 469 232.9989 L 469 232.6882 ZM 489.952 216 L 477 216 L 477 223 L 490 223 L 490 251 L 474 251 L 474 258 L 512 258 L 512 251 L 497 251 L 497 223 L 511 223 L 511 216 L 497 216 L 497 198 L 490 198 L 490 216.4659 L 489.952 216 Z" fill="#221e1f"/>
			<path d="M 575.8777 255.6402 C 570.2567 246.3462 562.8911 238.9687 560.8882 237.0101 L 555.3964 240.405 C 558.2392 243.2776 559.8544 245.4974 563.0203 249.7411 C 550.0983 250.394 548.7415 250.7548 536.6595 251.016 C 538.8562 246.8376 541.376 241.2882 543.5728 236 L 577 236 L 577 229 L 519 229 L 519 236 L 535.6047 236 C 534.2479 240.8965 531.0384 248.0128 529.3585 251.2119 C 527.3557 251.2771 521.4761 250.9815 520.1193 250.9815 L 521.0885 257.5289 C 543.6373 257.0882 558.11 256.0809 566.9615 255.1995 C 568.4476 257.34 568.8352 258.0526 569.6105 259.493 L 575.8777 255.6402 L 575.8777 255.6402 ZM 530.5892 223 L 565 223 L 565 218.6813 C 568.9412 221.3692 572.6886 223.236 575.4022 224.4316 L 579.9481 217.9962 C 567.1554 212.8619 556.7532 205.4637 552.0366 198 L 544.6065 198 C 539.1146 206.4457 527.0326 214.4986 516.6304 218.2719 L 520.3394 224.4316 C 523.1176 223.4068 526.0897 222.1962 531 218.8881 L 531 223 L 530.5892 223 ZM 535.0442 216 C 542.2805 210.6969 545.7695 206.7031 548.3539 203.5605 C 549.9045 205.3283 554.8149 211.0242 561.7927 216 L 535.0442 216 L 535.0442 216 Z" fill="#221e1f"/>
			<path d="M 611.1002 255.3464 C 617.718 255.0376 641.0824 253.8638 641.0824 228.2387 C 641.0824 217.5343 635.0037 202.9677 613.6454 202.9677 C 594.7465 202.9677 584.3148 215.9025 584.3148 231.6328 C 584.3148 241.7434 588.2815 250.9815 596.4646 250.9815 C 603.846 250.9815 607.6003 244.4342 608.6821 242.3488 C 613.5182 232.7294 614.6 220.6882 615.618 209.515 C 630.6354 210.5306 632.3489 222.7735 632.3489 228.0878 C 632.3489 247.7547 616.8271 248.4727 609.2548 248.7991 L 611.1002 255.3464 L 611.1002 255.3464 ZM 608.364 209.8323 C 607.7276 219.2756 605.2459 244.4342 596.7192 244.4342 C 593.5375 244.4342 590.8649 240.5998 590.8649 233.3348 C 590.8649 226.868 593.1557 212.5737 608.364 209.8323 L 608.364 209.8323 Z" fill="#221e1f"/>
			<path d="M 702.9816 198.6028 C 699.3552 198.6028 697.5232 200.3956 697.5232 204.0589 C 697.5232 207.7227 699.3162 209.515 702.9816 209.515 C 706.6075 209.515 708.44 207.7227 708.44 204.0589 C 708.44 200.3956 706.6075 198.6028 702.9816 198.6028 L 702.9816 198.6028 ZM 702.9816 200.7852 C 704.7556 200.7852 706.2567 202.2175 706.2567 204.0589 C 706.2567 205.9003 704.7556 207.3326 702.9816 207.3326 C 701.1394 207.3326 699.7065 205.9003 699.7065 204.0589 C 699.7065 202.2175 701.2076 200.7852 702.9816 200.7852 L 702.9816 200.7852 ZM 655.2112 254.8208 C 662.8745 245.1966 668.8349 233.0845 670.9308 204.7409 L 663.464 204.1271 C 662.4816 220.776 659.2721 238.5186 649.0544 249.5831 L 655.2112 254.8208 L 655.2112 254.8208 ZM 685.93 204.8091 C 687.3709 221.4307 691.8248 241.0065 701.2076 254.8208 L 707.3481 249.6486 C 697.952 235.3105 694.3793 217.6989 693.0693 203.9225 L 685.93 204.8091 L 685.93 204.8091 Z" fill="#221e1f"/>
			<path d="M 717.6318 254.9517 C 727.8806 250.7616 736.0536 243.9526 743.5779 235.1796 C 746.5618 237.6674 756.4862 246.506 763.816 255.2136 L 769.9237 248.9939 C 762.9728 242.1195 755.5781 235.7357 747.9888 229.5814 C 757.2646 216.6837 759.5349 206.6036 760.443 203 L 717 203 L 717 210 L 750.73 210 C 743.53 229.9031 727.0373 244.1757 713.1561 249.2825 L 717.6318 254.9517 L 717.6318 254.9517 Z" fill="#221e1f"/>
			<path d="M 826.6046 198.6028 C 822.9782 198.6028 821.1462 200.3956 821.1462 203.9792 C 821.1462 207.7227 822.9392 209.515 826.6046 209.515 C 830.2305 209.515 832.063 207.7227 832.063 204.0589 C 832.063 200.3956 830.2305 198.6028 826.6046 198.6028 L 826.6046 198.6028 ZM 826.6046 200.7852 C 828.3786 200.7852 829.8796 202.1828 829.8796 203.9792 C 829.8796 205.9003 828.3786 207.3326 826.6046 207.3326 C 824.7624 207.3326 823.3295 205.9003 823.3295 204.0589 C 823.3295 202.1828 824.7624 200.7852 826.6046 200.7852 L 826.6046 200.7852 ZM 800 202.3025 L 800 212 L 777 212 L 777 219 L 800 219 L 800 257 L 806 257 L 806 219 L 829 219 L 829 212 L 806 212 L 806 202 L 800.1374 202 L 800 202.3025 ZM 781.1694 254.2537 C 787.2608 247.3138 790.4047 240.3085 791.6492 224.7919 L 784.5099 224.0062 C 784.2479 228 783.7239 239.8502 774.7506 248.5578 L 781.1694 254.2537 L 781.1694 254.2537 ZM 814.5961 224.5955 C 815.3497 232.9103 817.1467 243.7129 824.8118 254.1883 L 831.4778 249.3434 C 822.394 237.9515 821.4581 227.6726 821.1462 223.6134 L 814.5961 224.5955 L 814.5961 224.5955 Z" fill="#221e1f"/>
			<path d="M 839 221.6605 L 839 231 L 898 231 L 898 222 L 839.4359 222 L 839 221.6605 Z" fill="#221e1f"/>
			<path d="M 906 201.4711 L 906 258 L 915 258 L 915 225.3499 C 923.9733 227.5994 936.8765 234.2624 944.2123 238.5686 L 947.7492 231.1774 C 943.3608 228.6708 930.9161 221.6651 915 217.2304 L 915 201 L 906.2956 201 L 906 201.4711 Z" fill="#221e1f"/>
		</g>
		<path d="M 792.5 345 L 720 381 L 865 381 L 792.5 345 ZM 305 408 L 191 408 L 191 521 L 305 521 L 305 408 ZM 763 517 L 713 517 L 713 554 L 763 554 L 763 517 ZM 874 517 L 822 517 L 822 554 L 874 554 L 874 517 Z" fill="#f0f0e1"/>
	</g>
	<g id="%u30EC%u30A4%u30E4%u30FC%201">
	</g>
</svg>

<svg xmlns="http://www.w3.org/2000/svg" viewBox="0 0 1024 945" style="background-color:#ffffff00">
  <path fill="#f0f0e1" d="M0 172.96C0 70.82 70.85 0 173.03 0h677.94C953.15 0 1024 70.82 1024 172.96v599.08C1024 874.18 953.15 945 850.97 945H173.03C70.85 945 0 874.18 0 772.04V172.96z"/>
  <path fill="#221e1f" d="M950.86 354.65c-6.55 17.46-15.3 34.62-24.02 52.08-4.37-2.18-10.92-4.37-17.47-8.73H903v42h-81v17h111v155H832.57l118.3 100.4c-8.75 13.1-21.85 28.54-34.95 41.64l-122.27-98.2-124.45 98.2c-10.9-13.1-24-28.55-34.93-41.65L754.35 612H654V457h111v-17h-83v-41.47c-8.73 2.2-15.74 6.3-22.3 8.5-6.54-13.1-14.97-30.56-23.7-45.83v-6.55l157.2-74.2 157.66 74.2zM418 293v341H191v113H77V293h341zm447.7 88H719.43l72.05-34.92L865.7 381zM586 353v30h46v57h-45.85l63.4 113.5c-15.28 8.72-32.98 17.2-50.45 28.12-4.37-6.54-6.55-13.1-13.1-19.64V748h-59V584.32c-6.55 13.1-13.1 27.86-19.65 43.13-17.47-6.54-34.65-15.04-52.12-21.58L529.47 440H473v-57h57v-30h56zm-282 56v109H193V409h111zm459 107v37h-50v-37h50zm111 0v37h-50v-37h50z"/>
  <path fill="#ee1c23" d="M587 294v59h-57v-59h57z"/>
  <path fill="#221e1f" d="M95.87 246H136v-6h-16v-5h13v-6h-13v-5h13v-6h-13v-5h15v-6h-14.2c.77-1.3 2.17-3.93 3.22-6.74l-6.55-1.7c-.63 1.57-2 5.23-4.24 8.44h-8.5c1.7-3.08 2.4-4.98 3.08-6.68l-5.8-1.5c-5.4 12.24-11.7 16.88-14.1 18.56l4.5 5.44c1.2-1.06 2-1.9 3.7-3.72V246H96zM114 223.55V229h-11v-5h11.38l-.38-.45zm0-11.1V218h-11v-5h11v-.54zm0 22.15v5.4h-11v-5h11.38l-.38-.4zm-36.73-30.4c4.06 3.72 7.56 9.1 8.9 11.2l5.5-4.2c-3.82-5.1-5.68-7.66-9.55-11.13l-4.85 4.12zm-.24 24.8H83v17.92c-2.75 2.75-5.63 4.54-6.88 5.26l3.05 6.95c3.6-2.38 7.2-5.62 9.32-8.9 3.3 5.87 11.2 6.77 15.8 6.77h33l1.4-6h-33.5c-10 0-15.2-5.23-15.2-10.86V222H77v6.4l.03.6zm73.77 30h6.2v-45.4c3.47-7.27 4.75-12.18 5.52-15.06l-6.62-.85c-2.34 10.1-6.36 17.7-14.3 26.3l3.96 7.6c1.5-1.6 2.7-2.7 5.44-6.4V259h-.2zm19.2-61v54.2c0 5.8 4.7 5.8 6.5 5.8h18.75c3 0 4.68-.63 6.12-3.02 1.3-2.08 1.62-10.87 1.68-13.7l-6.55-1.82c0 1.3-.2 9.05-.6 10.23-.25.7-.65 1.3-2.42 1.3h-13.92c-2.56 0-2.56-.7-2.56-2.5v-20.8c6.97-2.6 18.47-7.7 25.33-12.8l-4.5-6.2c-8.54 6.5-17.94 10.6-20.83 11.8V198h-7zm69 9h-30v7h31v5.97c-1.74-.94-3.5-1.73-6.4-1.73-9.5 0-13.67 7.37-13.67 13.3 0 7.16 5.06 12.9 13.1 12.9 4.22 0 5.7-1.3 7.08-2.5-1.4 5.2-4.8 8.68-20.3 9.04l2.1 6.55c10.9-.62 25.2-1.98 25.2-21 0-3.7-.6-6.12-1-7.93V214h19v-7h-19v-7h-7v7zm1 24.9c0 4.05-3.27 6-6.84 6-4.28 0-6.68-2.82-6.68-6.56 0-4.8 3.96-6.55 6.88-6.55 1.88 0 3.95.6 5.37 2.1.85.9 1.27 1.9 1.27 3.8v1.2zm38-31.36V207h26.2c-3.6 3.42-28.77 26.4-30.34 27.83l4.52 6.52c3.47-3.83 6.62-7.2 11.53-11.33 5.2-3.33 10.6-5.23 17-5.23 4.4 0 11.1 1.4 11.1 10.2 0 1.6 0 10.1-8.7 12.8.4-9.7-6.1-14.4-12.4-14.4-5.4 0-11.6 3.6-11.6 10.1 0 .9 0 11.7 17 11.7 8.5 0 12.2-1.8 15.2-4.3 4.5-3.67 7.2-9.38 7.2-16.43 0-3.26-.8-16.46-16.1-16.46-4.23 0-5.65.6-7.52 1.4 1.3-1.13 1.85-1.7 2.6-2.45 3.17-2.86 7.8-7.5 10.56-10.35V201H278l.1-.46zm24.4 48.26c-3.4 0-10.66 0-10.66-4.82 0-2.18 1.8-3.9 4.82-3.9 5.9 0 6.1 6.34 6.1 6.8 0 .57-.06 1.02-.25 1.92zm35.6-47.83V253h6v-52h-6v-.03zM398.15 219c-.32-15.17-9.17-17.82-21.94-17.82-17.9 0-21 7.06-21 25.92 0 20.56 4 25.6 22.5 25.6 14.3 0 20.7-4.03 20.9-18.7h-7.8c0 10.92-3.6 12.44-14 12.44-13.7 0-15.2-4.65-15.2-18.54 0-17.07 2.3-20.14 15-20.14 8.4 0 13.9 1.18 13.9 11.24h7.8zm6.85-18.46V207h18v46h6v-46h18v-6h-41.9l-.1-.46zm64 32.16c2.18 2.75 3.5 4.6 6.5 7.24l3.08-6.56c-4.16-3.3-5.78-4.5-9.05-8.5 3.9-5.2 5.38-8.27 6.47-11V207h-7v-10h-7v10h-10v7h16.7c-2.93 7.08-9.08 14.32-17.46 19.5l2.83 6.92c2.04-1.3 4-2.55 7.93-6.42v26h7v-27.3zm20.95-16.7H477v7h13v28h-16v7h38v-7h-15v-28h14v-7h-14v-18h-7v18.47l-.05-.47zm85.93 39.64c-5.62-9.3-13-16.67-15-18.63l-5.48 3.4c2.84 2.9 4.45 5.1 7.62 9.4-12.92.7-14.28 1-26.36 1.3 2.2-4.2 4.72-9.7 6.9-15H577v-7h-58v7h16.6c-1.35 4.9-4.56 12-6.24 15.2-2 .1-7.88-.2-9.24-.2l.97 6.6c22.5-.4 37-1.4 45.8-2.3 1.5 2.17 1.9 2.88 2.6 4.3l6.2-3.83zM530.58 223H565v-4.32c3.94 2.7 7.7 4.56 10.4 5.75l4.55-6.43c-12.8-5.14-23.2-12.54-27.9-20h-7.44c-5.5 8.45-17.5 16.5-27.9 20.27l3.7 6.16c2.8-1.02 5.8-2.23 10.7-5.54v4.1h-.4zm4.46-7c7.24-5.3 10.73-9.3 13.3-12.44 1.56 1.77 6.47 7.46 13.45 12.44H535zm76.06 39.35c6.62-.3 29.98-1.5 29.98-27.1 0-10.72-6.08-25.28-27.43-25.28-18.9 0-29.34 12.93-29.34 28.66 0 10.1 4 19.35 12.2 19.35 7.4 0 11.2-6.55 12.2-8.63 4.9-9.62 5.9-21.66 7-32.84 15 1.1 16.8 13.3 16.8 18.6 0 19.7-15.5 20.4-23.1 20.7l1.9 6.6zm-2.74-45.52c-.63 9.45-3.1 34.6-11.64 34.6-3.18 0-5.86-3.83-5.86-11.1 0-6.46 2.3-20.76 17.5-23.5zm94.62-11.23c-3.62 0-5.46 1.8-5.46 5.46s1.8 5.45 5.46 5.45c3.63 0 5.46-1.7 5.46-5.4s-1.83-5.4-5.46-5.4zm0 2.2c1.78 0 3.28 1.42 3.28 3.26 0 1.84-1.5 3.27-3.28 3.27-1.84 0-3.27-1.43-3.27-3.27s1.5-3.27 3.3-3.27zm-47.78 54c7.67-9.62 13.63-21.74 15.73-50.08l-7.47-.6c-.98 16.64-4.2 34.38-14.4 45.44l6.15 5.24zm30.73-50c1.44 16.6 5.9 36.2 15.28 50l6.2-5.17c-9.4-14.34-12.9-31.95-14.3-45.73l-7.1.9zm31.7 50.15c10.25-4.2 18.42-11 25.95-19.77 2.98 2.5 12.9 11.33 20.24 20.03l6.1-6.2c-6.95-6.8-14.34-13.2-21.93-19.4 9.2-12.9 11.5-23 12.4-26.6H717v7h33.73c-7.2 19.9-23.7 34.2-37.57 39.3l4.47 5.7zM826.6 198.6c-3.62 0-5.45 1.8-5.45 5.38 0 3.74 1.8 5.53 5.45 5.53 3.63 0 5.46-1.7 5.46-5.4s-1.83-5.4-5.46-5.4zm0 2.2c1.78 0 3.28 1.38 3.28 3.18 0 1.92-1.5 3.35-3.28 3.35-1.84 0-3.27-1.43-3.27-3.27 0-1.88 1.43-3.27 3.27-3.27zm-26.6 1.5v9.7h-23v7h23v38h6v-38h23v-7h-23v-10h-5.86l-.14.3zm-18.83 51.95c6.1-6.94 9.23-13.94 10.48-29.46l-7.14-.8c-.2 4-.7 15.8-9.7 24.5l6.4 5.7zm33.43-29.65c.75 8.3 2.55 19.1 10.2 29.6l6.68-4.86c-9.1-11.4-10.02-21.67-10.33-25.73l-6.55 1zm24.4-2.94V231h59v-9h-58.56l-.44-.34zm67-20.2V258h9v-32.65c8.97 2.25 21.88 8.9 29.2 13.22l3.55-7.4c-4.4-2.5-16.83-9.5-32.75-13.94V201h-8.7l-.3.47z"/>
  <path fill="#f0f0e1" d="M792.5 345L720 381h145l-72.5-36zM305 408H191v113h114V408zm458 109h-50v37h50v-37zm111 0h-52v37h52v-37z"/>
</svg>
